www/assets/icons/candlestick_chart.svg

<svg xmlns="http://www.w3.org/2000/svg" width="24" height="24" viewBox="0 0 24 24" fill='currentColor'><path d="M9 4H7v2H5v12h2v2h2v-2h2V6H9zm10 4h-2V4h-2v4h-2v7h2v5h2v-5h2z"/></svg>

<svg width="24" height="24" viewBox="0 0 24 24" xmlns="http://www.w3.org/2000/svg" fill='currentColor'><path d="M9 4H7V6H5V18H7V20H9V18H11V6H9V4Z"/><path d="M19 8H17V4H15V8H13V15H15V20H17V15H19V8Z"/></svg>
